Newaita-dark/.DP/scalable/battery-missing.svg

<?xml version="1.0" encoding="UTF-8"?>
<svg xmlns="http://www.w3.org/2000/svg" xmlns:xlink="http://www.w3.org/1999/xlink" width="512pt" height="512pt" viewBox="0 0 512 512" version="1.1">
<g id="surface1">
<path style=" stroke:none;fill-rule:nonzero;fill:rgb(74.117649%,74.117649%,74.117649%);fill-opacity:1;" d="M 63.507812 99.257812 C 45.914062 99.257812 31.753906 113.421875 31.753906 131.011719 L 31.753906 385.035156 C 31.753906 402.628906 45.914062 416.789062 63.507812 416.789062 L 423.375 416.789062 C 440.964844 416.789062 455.125 402.628906 455.125 385.035156 L 455.125 332.113281 L 465.710938 332.113281 C 477.4375 332.113281 486.878906 322.671875 486.878906 310.945312 L 486.878906 205.101562 C 486.878906 193.375 477.4375 183.933594 465.710938 183.933594 L 455.125 183.933594 L 455.125 131.011719 C 455.125 113.421875 440.964844 99.257812 423.375 99.257812 Z M 84.675781 131.011719 L 402.203125 131.011719 C 413.933594 131.011719 423.375 140.453125 423.375 152.179688 L 423.375 363.867188 C 423.375 375.59375 413.933594 385.035156 402.203125 385.035156 L 84.675781 385.035156 C 72.949219 385.035156 63.507812 375.59375 63.507812 363.867188 L 63.507812 152.179688 C 63.507812 140.453125 72.949219 131.011719 84.675781 131.011719 Z M 84.675781 131.011719 "/>
<path style=" stroke:none;fill-rule:nonzero;fill:rgb(74.117649%,74.117649%,74.117649%);fill-opacity:1;" d="M 116.429688 236.855469 C 128.117188 236.855469 137.597656 246.332031 137.597656 258.023438 C 137.597656 269.714844 128.117188 279.191406 116.429688 279.191406 C 104.738281 279.191406 95.257812 269.714844 95.257812 258.023438 C 95.257812 246.332031 104.738281 236.855469 116.429688 236.855469 Z M 116.429688 236.855469 "/>
<path style=" stroke:none;fill-rule:nonzero;fill:rgb(74.117649%,74.117649%,74.117649%);fill-opacity:1;" d="M 201.101562 236.855469 C 212.792969 236.855469 222.269531 246.332031 222.269531 258.023438 C 222.269531 269.714844 212.792969 279.191406 201.101562 279.191406 C 189.410156 279.191406 179.933594 269.714844 179.933594 258.023438 C 179.933594 246.332031 189.410156 236.855469 201.101562 236.855469 Z M 201.101562 236.855469 "/>
<path style=" stroke:none;fill-rule:nonzero;fill:rgb(74.117649%,74.117649%,74.117649%);fill-opacity:1;" d="M 285.777344 236.855469 C 297.46875 236.855469 306.945312 246.332031 306.945312 258.023438 C 306.945312 269.714844 297.46875 279.191406 285.777344 279.191406 C 274.085938 279.191406 264.609375 269.714844 264.609375 258.023438 C 264.609375 246.332031 274.085938 236.855469 285.777344 236.855469 Z M 285.777344 236.855469 "/>
<path style=" stroke:none;fill-rule:nonzero;fill:rgb(74.117649%,74.117649%,74.117649%);fill-opacity:1;" d="M 370.453125 236.855469 C 382.144531 236.855469 391.621094 246.332031 391.621094 258.023438 C 391.621094 269.714844 382.144531 279.191406 370.453125 279.191406 C 358.761719 279.191406 349.285156 269.714844 349.285156 258.023438 C 349.285156 246.332031 358.761719 236.855469 370.453125 236.855469 Z M 370.453125 236.855469 "/>
</g>
</svg>

<svg xmlns="http://www.w3.org/2000/svg" width="512pt" height="512pt" viewBox="0 0 512 512"><g fill="#bdbdbd"><path d="M63.508 99.258c-17.594 0-31.754 14.164-31.754 31.754v254.023a31.682 31.682 0 0 0 31.754 31.754h359.867c17.59 0 31.75-14.16 31.75-31.754v-52.922h10.586a21.122 21.122 0 0 0 21.168-21.168V205.102a21.122 21.122 0 0 0-21.168-21.168h-10.586v-52.922c0-17.59-14.16-31.754-31.75-31.754zm21.168 31.754h317.527a21.123 21.123 0 0 1 21.172 21.168v211.687a21.123 21.123 0 0 1-21.172 21.168H84.676a21.122 21.122 0 0 1-21.168-21.168V152.18a21.122 21.122 0 0 1 21.168-21.168zm0 0"/><path d="M116.43 236.855c11.687 0 21.168 9.477 21.168 21.168 0 11.692-9.48 21.168-21.168 21.168-11.692 0-21.172-9.476-21.172-21.168 0-11.691 9.48-21.168 21.172-21.168zm0 0M201.102 236.855c11.691 0 21.168 9.477 21.168 21.168 0 11.692-9.477 21.168-21.168 21.168-11.692 0-21.168-9.476-21.168-21.168 0-11.691 9.476-21.168 21.168-21.168zm0 0M285.777 236.855c11.692 0 21.168 9.477 21.168 21.168 0 11.692-9.476 21.168-21.168 21.168-11.691 0-21.168-9.476-21.168-21.168 0-11.691 9.477-21.168 21.168-21.168zm0 0M370.453 236.855c11.692 0 21.168 9.477 21.168 21.168 0 11.692-9.476 21.168-21.168 21.168-11.691 0-21.168-9.476-21.168-21.168 0-11.691 9.477-21.168 21.168-21.168zm0 0"/></g></svg>
